X:9
T:Tammy Sullivan's
R:reel
C:JP Cormier
D:Natalie MacMaster, LIVE, 2002
Z:Paul Stewart Cranford (P.S.C.), <http://www.cranfordpub.com>
L:1/8
M:C|
K:D
E|D2 DE {F}EDFE|DFAc d2 dA|BF{G}FE FABc|d2 (B/c/d) AFGE|
D2 DE {F}EDFE|DFAc dAFA|BF F/F/F dF F/F/F|AFEG FDD :|
|:z|a2 ^ga fdAd|afdB ABdf|e2 ce Acec|ac^gc =gece|
(3(aba) ^ga fdAd|afdB ABde|fBBA BcdB|AFEG FDD:|
% if none of this makes sense, go to http://www.cranfordpub.com/tunes/abcs
